assets/images/about/1991.svg

<svg width="27" height="89" viewBox="0 0 27 89" fill="none" xmlns="http://www.w3.org/2000/svg">
<path d="M25 74.475L26 74.475L26 73.475L25 73.475L25 74.475ZM25 80.67L25 81.67L26 81.67L26 80.67L25 80.67ZM9.46 80.67L9.46 79.67L8.017 79.67L8.52367 81.0211L9.46 80.67ZM9.985 87.285L9.985 88.285L10.985 88.285L10.985 87.285L9.985 87.285ZM4.21 87.285L3.21 87.285L3.21 88.285L4.21 88.285L4.21 87.285ZM3.72 81.44L4.56366 80.9031L4.55515 80.8898L4.54623 80.8767L3.72 81.44ZM2.04 80.67L1.04 80.67L1.04 81.67L2.04 81.67L2.04 80.67ZM2.04 74.475L2.04 73.475L1.04 73.475L1.04 74.475L2.04 74.475ZM24 74.475L24 80.67L26 80.67L26 74.475L24 74.475ZM25 79.67L9.46 79.67L9.46 81.67L25 81.67L25 79.67ZM8.52367 81.0211C8.82506 81.8248 8.985 82.7532 8.985 83.82L10.985 83.82C10.985 82.5535 10.7949 81.3818 10.3963 80.3189L8.52367 81.0211ZM8.985 83.82L8.985 87.285L10.985 87.285L10.985 83.82L8.985 83.82ZM9.985 86.285L4.21 86.285L4.21 88.285L9.985 88.285L9.985 86.285ZM5.21 87.285L5.21 83.925L3.21 83.925L3.21 87.285L5.21 87.285ZM5.21 83.925C5.21 82.7332 5.0484 81.6649 4.56366 80.9031L2.87634 81.9769C3.04493 82.2418 3.21 82.8301 3.21 83.925L5.21 83.925ZM4.54623 80.8767C3.9646 80.0236 3.05107 79.67 2.04 79.67L2.04 81.67C2.56893 81.67 2.7754 81.8297 2.89377 82.0033L4.54623 80.8767ZM3.04 80.67L3.04 74.475L1.04 74.475L1.04 80.67L3.04 80.67ZM2.04 75.475L25 75.475L25 73.475L2.04 73.475L2.04 75.475ZM2.705 50.6556L3.63657 51.0191L2.705 50.6556ZM5.925 46.2806L6.50753 47.0934L6.51398 47.0887L5.925 46.2806ZM22.83 48.1356L23.622 47.5251L22.83 48.1356ZM23.39 66.2656L24.2177 66.8269L24.225 66.8159L23.39 66.2656ZM17.44 69.3106L16.44 69.3106L16.44 70.3106L17.44 70.3106L17.44 69.3106ZM17.44 63.2906L17.44 62.2906L16.44 62.2906L16.44 63.2906L17.44 63.2906ZM19.47 61.7506L18.5519 61.3541L19.47 61.7506ZM18.98 52.6506L18.1505 53.2092L18.156 53.2171L18.98 52.6506ZM15.025 50.9356L15.025 49.9356L13.1844 49.9356L14.186 51.4798L15.025 50.9356ZM14.885 66.7556L15.7308 67.2893L15.738 67.2774L14.885 66.7556ZM3.615 66.5106L4.4625 65.9797L4.45828 65.9731L3.615 66.5106ZM11.21 62.1356L12.1352 62.5151L11.21 62.1356ZM11.385 53.6656L12.3607 53.4465L12.3591 53.4394L12.3574 53.4322L11.385 53.6656ZM10.23 50.9706L11.0194 50.3566L10.6625 49.8978L10.0871 49.9808L10.23 50.9706ZM2.585 57.4806C2.585 54.9346 2.94594 52.7889 3.63657 51.0191L1.77342 50.292C0.970721 52.349 0.584998 54.7532 0.584998 57.4806L2.585 57.4806ZM3.63657 51.0191C4.32658 49.251 5.29306 47.9638 6.50752 47.0934L5.34248 45.4678C3.75694 46.6041 2.57674 48.2335 1.77342 50.292L3.63657 51.0191ZM6.51398 47.0887C7.69669 46.2268 9.13983 45.7756 10.895 45.7756L10.895 43.7756C8.77683 43.7756 6.90664 44.3277 5.33601 45.4724L6.51398 47.0887ZM10.895 45.7756L15.55 45.7756L15.55 43.7756L10.895 43.7756L10.895 45.7756ZM15.55 45.7756C18.4041 45.7756 20.5224 46.78 22.038 48.7461L23.622 47.5251C21.6842 45.0112 18.9493 43.7756 15.55 43.7756L15.55 45.7756ZM22.038 48.7461C23.5822 50.7494 24.42 53.6532 24.42 57.5856L26.42 57.5856C26.42 53.398 25.5311 50.0018 23.622 47.5251L22.038 48.7461ZM24.42 57.5856C24.42 61.2178 23.7584 63.8895 22.555 65.7153L24.225 66.8159C25.7283 64.535 26.42 61.42 26.42 57.5856L24.42 57.5856ZM22.5624 65.7043C21.3737 67.4572 19.7601 68.3106 17.615 68.3106L17.615 70.3106C20.4165 70.3106 22.653 69.134 24.2176 66.8269L22.5624 65.7043ZM17.615 68.3106L17.44 68.3106L17.44 70.3106L17.615 70.3106L17.615 68.3106ZM18.44 69.3106L18.44 63.2906L16.44 63.2906L16.44 69.3106L18.44 69.3106ZM17.44 64.2906L17.615 64.2906L17.615 62.2906L17.44 62.2906L17.44 64.2906ZM17.615 64.2906C18.9696 64.2906 19.8627 63.3635 20.3881 62.147L18.5519 61.3541C18.1906 62.191 17.8471 62.2906 17.615 62.2906L17.615 64.2906ZM20.3881 62.147C20.9084 60.9421 21.135 59.3756 21.135 57.5156L19.135 57.5156C19.135 59.2489 18.9183 60.5057 18.5519 61.3541L20.3881 62.147ZM21.135 57.5156C21.135 55.2953 20.7365 53.4404 19.804 52.0841L18.156 53.2171C18.7635 54.1008 19.135 55.4892 19.135 57.5156L21.135 57.5156ZM19.8094 52.092C18.8429 50.6568 17.4147 49.9356 15.655 49.9356L15.655 51.9356C16.7886 51.9356 17.5771 52.3577 18.1506 53.2092L19.8094 52.092ZM15.655 49.9356L15.025 49.9356L15.025 51.9356L15.655 51.9356L15.655 49.9356ZM14.186 51.4798C15.1584 52.9788 15.705 55.2085 15.705 58.2856L17.705 58.2856C17.705 55.016 17.1316 52.3457 15.864 50.3914L14.186 51.4798ZM15.705 58.2856C15.705 61.8615 15.1089 64.4734 14.032 66.2337L15.738 67.2774C17.0878 65.0711 17.705 62.0364 17.705 58.2856L15.705 58.2856ZM14.0393 66.222C12.985 67.8928 11.5304 68.6956 9.565 68.6956L9.565 70.6956C12.2196 70.6956 14.3116 69.5384 15.7307 67.2892L14.0393 66.222ZM9.565 68.6956L9.32 68.6956L9.32 70.6956L9.565 70.6956L9.565 68.6956ZM9.32 68.6956C7.19653 68.6956 5.61253 67.8158 4.46247 65.9797L2.76752 67.0414C4.27746 69.452 6.4968 70.6956 9.32 70.6956L9.32 68.6956ZM4.45828 65.9731C3.24897 64.0758 2.585 61.283 2.585 57.4806L0.584998 57.4806C0.584998 61.4715 1.27436 64.6988 2.77172 67.0481L4.45828 65.9731ZM9.46 64.5006C10.0623 64.5006 10.627 64.3226 11.1075 63.9478C11.5743 63.5837 11.9035 63.0798 12.1352 62.5151L10.2848 61.756C10.1432 62.1013 9.99399 62.2799 9.87747 62.3708C9.77463 62.451 9.65104 62.5006 9.46 62.5006L9.46 64.5006ZM12.1352 62.5151C12.5867 61.4145 12.77 59.7903 12.77 57.7606L10.77 57.7606C10.77 59.7442 10.58 61.0366 10.2848 61.756L12.1352 62.5151ZM12.77 57.7606C12.77 56.1243 12.6381 54.682 12.3607 53.4465L10.4093 53.8846C10.6453 54.9359 10.77 56.2236 10.77 57.7606L12.77 57.7606ZM12.3574 53.4322C12.0594 52.1904 11.6294 51.141 11.0194 50.3566L9.44065 51.5845C9.81055 52.0601 10.1506 52.8074 10.4126 53.899L12.3574 53.4322ZM10.0871 49.9808C8.59517 50.1962 7.48537 51.0722 6.79025 52.4553C6.1228 53.7833 5.835 55.5715 5.835 57.7256L7.835 57.7256C7.835 55.703 8.11303 54.277 8.57725 53.3534C9.01379 52.4848 9.60149 52.0717 10.3728 51.9603L10.0871 49.9808ZM5.835 57.7256C5.835 59.6909 6.03896 61.2972 6.52692 62.4474C6.77532 63.0329 7.11866 63.5515 7.5953 63.926C8.0867 64.3121 8.66427 64.5006 9.285 64.5006L9.285 62.5006C9.08906 62.5006 8.95205 62.4485 8.83094 62.3533C8.69509 62.2466 8.52801 62.0433 8.36808 61.6663C8.03937 60.8915 7.835 59.6103 7.835 57.7256L5.835 57.7256ZM9.285 64.5006L9.46 64.5006L9.46 62.5006L9.285 62.5006L9.285 64.5006ZM2.705 23.1409L3.63657 23.5045L2.705 23.1409ZM5.925 18.7659L6.50753 19.5788L6.51398 19.5741L5.925 18.7659ZM22.83 20.6209L23.622 20.0104L22.83 20.6209ZM23.39 38.7509L24.2177 39.3123L24.225 39.3012L23.39 38.7509ZM17.44 41.7959L16.44 41.7959L16.44 42.7959L17.44 42.7959L17.44 41.7959ZM17.44 35.7759L17.44 34.7759L16.44 34.7759L16.44 35.7759L17.44 35.7759ZM19.47 34.2359L18.5519 33.8395L19.47 34.2359ZM18.98 25.1359L18.1505 25.6946L18.156 25.7025L18.98 25.1359ZM15.025 23.4209L15.025 22.4209L13.1844 22.4209L14.186 23.9651L15.025 23.4209ZM14.885 39.2409L15.7308 39.7746L15.738 39.7628L14.885 39.2409ZM3.615 38.9959L4.4625 38.4651L4.45828 38.4585L3.615 38.9959ZM11.21 34.6209L12.1352 35.0005L11.21 34.6209ZM11.385 26.1509L12.3607 25.9319L12.3591 25.9247L12.3574 25.9176L11.385 26.1509ZM10.23 23.4559L11.0193 22.842L10.6625 22.3832L10.0871 22.4662L10.23 23.4559ZM2.585 29.9659C2.585 27.42 2.94594 25.2742 3.63657 23.5045L1.77342 22.7774C0.970719 24.8343 0.584996 27.2386 0.584997 29.9659L2.585 29.9659ZM3.63657 23.5045C4.32658 21.7363 5.29306 20.4491 6.50752 19.5787L5.34248 17.9531C3.75694 19.0894 2.57674 20.7189 1.77342 22.7774L3.63657 23.5045ZM6.51398 19.5741C7.69669 18.7121 9.13983 18.2609 10.895 18.2609L10.895 16.2609C8.77683 16.2609 6.90663 16.8131 5.33601 17.9578L6.51398 19.5741ZM10.895 18.2609L15.55 18.2609L15.55 16.2609L10.895 16.2609L10.895 18.2609ZM15.55 18.2609C18.4041 18.2609 20.5224 19.2653 22.038 21.2314L23.622 20.0104C21.6842 17.4965 18.9493 16.2609 15.55 16.2609L15.55 18.2609ZM22.038 21.2314C23.5822 23.2347 24.42 26.1385 24.42 30.0709L26.42 30.0709C26.42 25.8834 25.5311 22.4872 23.622 20.0104L22.038 21.2314ZM24.42 30.0709C24.42 33.7032 23.7584 36.3749 22.555 38.2006L24.225 39.3012C25.7283 37.0203 26.42 33.9054 26.42 30.0709L24.42 30.0709ZM22.5624 38.1897C21.3737 39.9425 19.7601 40.7959 17.615 40.7959L17.615 42.7959C20.4165 42.7959 22.653 41.6194 24.2176 39.3122L22.5624 38.1897ZM17.615 40.7959L17.44 40.7959L17.44 42.7959L17.615 42.7959L17.615 40.7959ZM18.44 41.7959L18.44 35.7759L16.44 35.7759L16.44 41.7959L18.44 41.7959ZM17.44 36.7759L17.615 36.7759L17.615 34.7759L17.44 34.7759L17.44 36.7759ZM17.615 36.7759C18.9696 36.7759 19.8627 35.8489 20.3881 34.6324L18.5519 33.8395C18.1906 34.6763 17.8471 34.7759 17.615 34.7759L17.615 36.7759ZM20.3881 34.6324C20.9084 33.4275 21.135 31.8609 21.135 30.0009L19.135 30.0009C19.135 31.7343 18.9183 32.9911 18.5519 33.8395L20.3881 34.6324ZM21.135 30.0009C21.135 27.7806 20.7365 25.9258 19.804 24.5694L18.156 25.7025C18.7635 26.5861 19.135 27.9746 19.135 30.0009L21.135 30.0009ZM19.8094 24.5773C18.8429 23.1421 17.4147 22.4209 15.655 22.4209L15.655 24.4209C16.7886 24.4209 17.5771 24.8431 18.1506 25.6945L19.8094 24.5773ZM15.655 22.4209L15.025 22.4209L15.025 24.4209L15.655 24.4209L15.655 22.4209ZM14.186 23.9651C15.1584 25.4641 15.705 27.6939 15.705 30.7709L17.705 30.7709C17.705 27.5013 17.1316 24.8311 15.864 22.8767L14.186 23.9651ZM15.705 30.7709C15.705 34.3468 15.1089 36.9588 14.032 38.7191L15.738 39.7628C17.0878 37.5564 17.705 34.5217 17.705 30.7709L15.705 30.7709ZM14.0393 38.7073C12.985 40.3782 11.5304 41.1809 9.565 41.1809L9.565 43.1809C12.2196 43.1809 14.3116 42.0237 15.7307 39.7746L14.0393 38.7073ZM9.565 41.1809L9.32 41.1809L9.32 43.1809L9.565 43.1809L9.565 41.1809ZM9.32 41.1809C7.19653 41.1809 5.61253 40.3012 4.46247 38.4651L2.76752 39.5268C4.27746 41.9374 6.4968 43.1809 9.32 43.1809L9.32 41.1809ZM4.45828 38.4585C3.24897 36.5611 2.585 33.7684 2.585 29.9659L0.584997 29.9659C0.584997 33.9568 1.27436 37.1841 2.77172 39.5334L4.45828 38.4585ZM9.46 36.9859C10.0623 36.9859 10.627 36.808 11.1075 36.4332C11.5743 36.0691 11.9035 35.5652 12.1352 35.0005L10.2848 34.2414C10.1432 34.5867 9.99399 34.7653 9.87747 34.8562C9.77463 34.9364 9.65104 34.9859 9.46 34.9859L9.46 36.9859ZM12.1352 35.0005C12.5867 33.8999 12.77 32.2757 12.77 30.2459L10.77 30.2459C10.77 32.2295 10.58 33.522 10.2848 34.2414L12.1352 35.0005ZM12.77 30.2459C12.77 28.6096 12.638 27.1673 12.3607 25.9319L10.4093 26.37C10.6453 27.4212 10.77 28.7089 10.77 30.2459L12.77 30.2459ZM12.3574 25.9176C12.0594 24.6758 11.6294 23.6264 11.0193 22.842L9.44064 24.0699C9.81055 24.5455 10.1506 25.2927 10.4126 26.3843L12.3574 25.9176ZM10.0871 22.4662C8.59517 22.6815 7.48537 23.5575 6.79025 24.9406C6.1228 26.2686 5.835 28.0568 5.835 30.2109L7.835 30.2109C7.835 28.1884 8.11303 26.7624 8.57724 25.8388C9.01379 24.9702 9.60149 24.557 10.3728 24.4457L10.0871 22.4662ZM5.835 30.2109C5.835 32.1763 6.03896 33.7826 6.52691 34.9327C6.77532 35.5183 7.11866 36.0368 7.5953 36.4113C8.0867 36.7974 8.66427 36.9859 9.285 36.9859L9.285 34.9859C9.08906 34.9859 8.95204 34.9338 8.83094 34.8387C8.69509 34.7319 8.52801 34.5286 8.36808 34.1516C8.03937 33.3768 7.835 32.0956 7.835 30.2109L5.835 30.2109ZM9.285 36.9859L9.46 36.9859L9.46 34.9859L9.285 34.9859L9.285 36.9859ZM25 1.29629L26 1.29629L26 0.296286L25 0.296286L25 1.29629ZM25 7.49129L25 8.49129L26 8.49129L26 7.49129L25 7.49129ZM9.46 7.49129L9.46 6.49129L8.01699 6.49129L8.52367 7.84241L9.46 7.49129ZM9.985 14.1063L9.985 15.1063L10.985 15.1063L10.985 14.1063L9.985 14.1063ZM4.20999 14.1063L3.20999 14.1063L3.20999 15.1063L4.20999 15.1063L4.20999 14.1063ZM3.71999 8.26129L4.56366 7.72441L4.55515 7.71104L4.54622 7.69795L3.71999 8.26129ZM2.04 7.49129L1.04 7.49129L1.04 8.49129L2.04 8.49129L2.04 7.49129ZM2.04 1.29629L2.04 0.296287L1.04 0.296287L1.04 1.29629L2.04 1.29629ZM24 1.29629L24 7.49129L26 7.49129L26 1.29629L24 1.29629ZM25 6.49129L9.46 6.49129L9.46 8.49129L25 8.49129L25 6.49129ZM8.52367 7.84241C8.82505 8.64612 8.985 9.57448 8.985 10.6413L10.985 10.6413C10.985 9.37475 10.7949 8.20313 10.3963 7.14017L8.52367 7.84241ZM8.985 10.6413L8.985 14.1063L10.985 14.1063L10.985 10.6413L8.985 10.6413ZM9.985 13.1063L4.20999 13.1063L4.20999 15.1063L9.985 15.1063L9.985 13.1063ZM5.20999 14.1063L5.20999 10.7463L3.20999 10.7463L3.20999 14.1063L5.20999 14.1063ZM5.20999 10.7463C5.20999 9.5545 5.0484 8.48615 4.56366 7.72441L2.87633 8.79816C3.04493 9.06309 3.20999 9.65141 3.20999 10.7463L5.20999 10.7463ZM4.54622 7.69795C3.96459 6.84489 3.05107 6.49129 2.04 6.49129L2.04 8.49129C2.56892 8.49129 2.7754 8.65102 2.89377 8.82462L4.54622 7.69795ZM3.04 7.49129L3.04 1.29629L1.04 1.29629L1.04 7.49129L3.04 7.49129ZM2.04 2.29629L25 2.29629L25 0.296286L2.04 0.296287L2.04 2.29629Z" fill="#313131"/>
</svg>

<svg width="27" height="89" fill="none" xmlns="http://www.w3.org/2000/svg"><path d="M25 74.475h1v-1h-1v1zm0 6.195v1h1v-1h-1zm-15.54 0v-1H8.017l.507 1.351.936-.351zm.525 6.615v1h1v-1h-1zm-5.775 0h-1v1h1v-1zm-.49-5.845l.844-.537-.009-.013-.009-.013-.826.563zm-1.68-.77h-1v1h1v-1zm0-6.195v-1h-1v1h1zm21.96 0v6.195h2v-6.195h-2zm1 5.195H9.46v2H25v-2zM8.524 81.021c.301.804.461 1.732.461 2.799h2c0-1.266-.19-2.438-.589-3.501l-1.872.702zm.461 2.799v3.465h2V83.82h-2zm1 2.465H4.21v2h5.775v-2zm-4.775 1v-3.36h-2v3.36h2zm0-3.36c0-1.192-.162-2.26-.646-3.022l-1.688 1.074c.169.265.334.853.334 1.948h2zm-.664-3.048c-.581-.853-1.495-1.207-2.506-1.207v2c.529 0 .735.16.854.333l1.652-1.126zM3.04 80.67v-6.195h-2v6.195h2zm-1-5.195H25v-2H2.04v2zm.665-24.82l.932.364-.932-.363zm3.22-4.374l.583.812.006-.004-.589-.808zm16.905 1.855l.792-.61-.792.61zm.56 18.13l.828.56.007-.01-.835-.55zm-5.95 3.045h-1v1h1v-1zm0-6.02v-1h-1v1h1zm2.03-1.54l-.918-.397.918.397zm-.49-9.1l-.83.558.006.008.824-.566zm-3.955-1.715v-1h-1.84l1.001 1.544.839-.544zm-.14 15.82l.846.533.007-.012-.853-.521zm-11.27-.245l.848-.531-.005-.007-.843.538zm7.595-4.375l.925.38-.925-.38zm.175-8.47l.976-.22-.002-.007-.002-.007-.972.234zM10.23 50.97l.79-.614-.357-.46-.576.084.143.99zm-7.645 6.51c0-2.546.36-4.692 1.052-6.462l-1.864-.727C.971 52.349.585 54.753.585 57.481h2zm1.052-6.462c.69-1.768 1.656-3.055 2.87-3.926l-1.165-1.625c-1.585 1.136-2.765 2.765-3.569 4.824l1.864.727zm2.877-3.93c1.183-.862 2.626-1.313 4.381-1.313v-2c-2.118 0-3.988.552-5.559 1.696l1.178 1.617zm4.381-1.313h4.655v-2h-4.655v2zm4.655 0c2.854 0 4.972 1.004 6.488 2.97l1.584-1.22c-1.938-2.515-4.673-3.75-8.072-3.75v2zm6.488 2.97c1.544 2.003 2.382 4.907 2.382 8.84h2c0-4.188-.889-7.584-2.798-10.06l-1.584 1.22zm2.382 8.84c0 3.632-.662 6.303-1.865 8.13l1.67 1.1c1.503-2.281 2.195-5.396 2.195-9.23h-2zm-1.858 8.118c-1.188 1.753-2.802 2.607-4.947 2.607v2c2.802 0 5.038-1.177 6.603-3.484l-1.656-1.123zm-4.947 2.607h-.175v2h.175v-2zm.825 1v-6.02h-2v6.02h2zm-1-5.02h.175v-2h-.175v2zm.175 0c1.355 0 2.248-.927 2.773-2.144l-1.836-.793c-.361.837-.705.937-.937.937v2zm2.773-2.144c.52-1.205.747-2.771.747-4.631h-2c0 1.733-.217 2.99-.583 3.838l1.836.793zm.747-4.631c0-2.22-.399-4.076-1.331-5.432l-1.648 1.133c.608.884.979 2.272.979 4.299h2zm-1.326-5.424c-.966-1.435-2.394-2.156-4.154-2.156v2c1.134 0 1.922.422 2.496 1.273l1.658-1.117zm-4.154-2.156h-.63v2h.63v-2zm-1.469 1.544c.972 1.499 1.519 3.729 1.519 6.806h2c0-3.27-.573-5.94-1.841-7.895l-1.678 1.089zm1.519 6.806c0 3.575-.596 6.187-1.673 7.948l1.706 1.043c1.35-2.206 1.967-5.24 1.967-8.991h-2zm-1.666 7.936c-1.054 1.67-2.509 2.474-4.474 2.474v2c2.655 0 4.747-1.158 6.166-3.407l-1.692-1.067zm-4.474 2.474H9.32v2h.245v-2zm-.245 0c-2.123 0-3.707-.88-4.858-2.716L2.768 67.04c1.51 2.411 3.729 3.655 6.552 3.655v-2zm-4.862-2.723c-1.209-1.897-1.873-4.69-1.873-8.492h-2c0 3.99.69 7.218 2.187 9.567l1.686-1.075zM9.46 64.5c.602 0 1.167-.178 1.647-.553.467-.364.796-.868 1.028-1.433l-1.85-.759c-.142.345-.291.524-.408.615a.633.633 0 01-.417.13v2zm2.675-1.986c.452-1.1.635-2.725.635-4.754h-2c0 1.983-.19 3.276-.485 3.995l1.85.76zm.635-4.754c0-1.637-.132-3.079-.41-4.315l-1.95.439c.235 1.05.36 2.339.36 3.876h2zm-.413-4.329c-.298-1.242-.728-2.291-1.338-3.075l-1.578 1.227c.37.476.71 1.223.972 2.315l1.944-.467zm-2.27-3.451c-1.492.215-2.602 1.091-3.297 2.474-.667 1.328-.955 3.117-.955 5.27h2c0-2.022.278-3.448.742-4.372.437-.868 1.024-1.281 1.796-1.393l-.286-1.98zm-4.252 7.745c0 1.965.204 3.571.692 4.721.248.586.592 1.104 1.068 1.479a2.684 2.684 0 001.69.575v-2a.687.687 0 01-.454-.148c-.136-.106-.303-.31-.463-.687-.329-.774-.533-2.056-.533-3.94h-2zm3.45 6.775h.175v-2h-.175v2zm-6.58-41.36l.932.364-.932-.364zm3.22-4.375l.583.813.006-.005-.589-.808zM22.83 20.62l.792-.61-.792.61zm.56 18.13l.828.561.007-.01-.835-.551zm-5.95 3.045h-1v1h1v-1zm0-6.02v-1h-1v1h1zm2.03-1.54l-.918-.396.918.396zm-.49-9.1l-.83.559.006.008.824-.567zm-3.955-1.715v-1h-1.84l1.001 1.544.839-.544zm-.14 15.82l.846.534.007-.012-.853-.522zm-11.27-.245l.848-.53-.005-.008-.843.538zm7.595-4.375l.925.38-.925-.38zm.175-8.47l.976-.22-.002-.006-.002-.007-.972.233zm-1.155-2.695l.79-.614-.357-.459-.576.083.143.99zm-7.645 6.51c0-2.546.36-4.692 1.052-6.462l-1.864-.727C.971 24.834.585 27.24.585 29.966h2zm1.052-6.462c.69-1.768 1.656-3.055 2.87-3.925l-1.165-1.626c-1.585 1.136-2.765 2.766-3.569 4.824l1.864.727zm2.877-3.93c1.183-.862 2.626-1.313 4.381-1.313v-2c-2.118 0-3.988.552-5.559 1.697l1.178 1.616zm4.381-1.313h4.655v-2h-4.655v2zm4.655 0c2.854 0 4.972 1.004 6.488 2.97l1.584-1.22c-1.938-2.514-4.673-3.75-8.072-3.75v2zm6.488 2.97c1.544 2.004 2.382 4.907 2.382 8.84h2c0-4.188-.889-7.584-2.798-10.06l-1.584 1.22zm2.382 8.84c0 3.632-.662 6.304-1.865 8.13l1.67 1.1c1.503-2.28 2.195-5.396 2.195-9.23h-2zm-1.858 8.119c-1.188 1.753-2.802 2.606-4.947 2.606v2c2.802 0 5.038-1.177 6.603-3.484l-1.656-1.122zm-4.947 2.606h-.175v2h.175v-2zm.825 1v-6.02h-2v6.02h2zm-1-5.02h.175v-2h-.175v2zm.175 0c1.355 0 2.248-.927 2.773-2.144l-1.836-.792c-.361.836-.705.936-.937.936v2zm2.773-2.144c.52-1.204.747-2.771.747-4.631h-2c0 1.733-.217 2.99-.583 3.838l1.836.793zM21.135 30c0-2.22-.399-4.075-1.331-5.432l-1.648 1.134c.608.883.979 2.272.979 4.298h2zm-1.326-5.424c-.966-1.435-2.394-2.156-4.154-2.156v2c1.134 0 1.922.422 2.496 1.274l1.658-1.118zm-4.154-2.156h-.63v2h.63v-2zm-1.469 1.544c.972 1.5 1.519 3.729 1.519 6.806h2c0-3.27-.573-5.94-1.841-7.894l-1.678 1.088zm1.519 6.806c0 3.576-.596 6.188-1.673 7.948l1.706 1.044c1.35-2.207 1.967-5.241 1.967-8.992h-2zm-1.666 7.936c-1.054 1.671-2.509 2.474-4.474 2.474v2c2.655 0 4.747-1.157 6.166-3.406l-1.692-1.068zM9.565 41.18H9.32v2h.245v-2zm-.245 0c-2.123 0-3.707-.88-4.858-2.716l-1.694 1.062c1.51 2.41 3.729 3.654 6.552 3.654v-2zm-4.862-2.722c-1.209-1.898-1.873-4.69-1.873-8.493h-2c0 3.99.69 7.218 2.187 9.567l1.686-1.075zm5.002-1.473c.602 0 1.167-.178 1.647-.553.467-.364.796-.868 1.028-1.432l-1.85-.76c-.142.346-.291.524-.408.615a.633.633 0 01-.417.13v2zM12.135 35c.452-1.101.635-2.725.635-4.755h-2c0 1.984-.19 3.276-.485 3.995l1.85.76zm.635-4.755c0-1.636-.132-3.079-.41-4.314l-1.95.438c.235 1.051.36 2.339.36 3.876h2zm-.413-4.328c-.298-1.242-.728-2.292-1.338-3.076L9.441 24.07c.37.476.71 1.223.972 2.314l1.944-.466zm-2.27-3.452c-1.492.215-2.602 1.091-3.297 2.475-.667 1.328-.955 3.116-.955 5.27h2c0-2.023.278-3.449.742-4.372.437-.869 1.024-1.282 1.796-1.393l-.286-1.98zM5.835 30.21c0 1.965.204 3.572.692 4.722.248.585.592 1.104 1.068 1.478a2.684 2.684 0 001.69.575v-2a.687.687 0 01-.454-.147c-.136-.107-.303-.31-.463-.687-.329-.775-.533-2.056-.533-3.941h-2zm3.45 6.775h.175v-2h-.175v2zM25 1.296h1v-1h-1v1zm0 6.195v1h1v-1h-1zm-15.54 0v-1H8.017l.507 1.351.936-.35zm.525 6.615v1h1v-1h-1zm-5.775 0h-1v1h1v-1zm-.49-5.845l.844-.537-.009-.013-.009-.013-.826.563zm-1.68-.77h-1v1h1v-1zm0-6.195v-1h-1v1h1zm21.96 0v6.195h2V1.296h-2zm1 5.195H9.46v2H25v-2zM8.524 7.842c.301.804.461 1.732.461 2.8h2c0-1.267-.19-2.439-.589-3.502l-1.872.702zm.461 2.8v3.464h2v-3.465h-2zm1 2.464H4.21v2h5.775v-2zm-4.775 1v-3.36h-2v3.36h2zm0-3.36c0-1.191-.162-2.26-.646-3.022L2.876 8.798c.169.265.334.853.334 1.948h2zm-.664-3.048C3.965 6.845 3.051 6.49 2.04 6.49v2c.529 0 .735.16.854.334l1.652-1.127zM3.04 7.49V1.296h-2v6.195h2zm-1-5.195H25v-2H2.04v2z" fill="#313131"/></svg>
